svgs/sharp-regular/chess-clock.svg

<svg xmlns="http://www.w3.org/2000/svg" viewBox="0 0 640 512"><!--! Font Awesome Pro 6.6.0 by @fontawesome - https://fontawesome.com License - https://fontawesome.com/license (Commercial License) Copyright 2024 Fonticons, Inc. --><path d="M256 32L96 32l0 48 56 0 0 32L48 112 0 112l0 48L0 432l0 48 48 0 544 0 48 0 0-48 0-272 0-48-48 0-48 0 0-32L384 80l0 32-184 0 0-32 56 0 0-48zM592 160l0 272L48 432l0-272 544 0zM200 400a104 104 0 1 0 0-208 104 104 0 1 0 0 208zM184 240l0-16 32 0 0 16 0 48 0 16-32 0 0-16 0-48zM513.5 369.5A104 104 0 1 0 366.5 222.5 104 104 0 1 0 513.5 369.5zM502.2 256.4l-11.3 11.3L457 301.7 445.7 313 423 290.3 434.3 279l33.9-33.9 11.3-11.3 22.6 22.6z"/></svg>

<svg xmlns="http://www.w3.org/2000/svg" viewBox="0 0 640 512"><!--! Font Awesome Pro 6.4.2 by @fontawesome - https://fontawesome.com License - https://fontawesome.com/license (Commercial License) Copyright 2023 Fonticons, Inc. --><path d="M256 32H96V80h56v32H48 0v48V432v48H48 592h48V432 160 112H592 544V80H384v32H200V80h56V32zM592 160V432H48V160H592zM200 400a104 104 0 1 0 0-208 104 104 0 1 0 0 208zM184 240V224h32v16 48 16H184V288 240zM513.5 369.5A104 104 0 1 0 366.5 222.5 104 104 0 1 0 513.5 369.5zM502.2 256.4l-11.3 11.3L457 301.7 445.7 313 423 290.3 434.3 279l33.9-33.9 11.3-11.3 22.6 22.6z"/></svg>
